X: 072
M: 12/8
L: 1/8
K: Dmix
g | Tf2d- dfd  Adf afd | Te2c cec   Gce gec | Tf2d  dfd Adf afd | cAc GEG AFD D2 ||
g | Tf2d- dfd  Adf afd | Te2c cec   Gce gec |  afd  bge afd gec | AcA GEG AFD D2 |]


